X: 21977
T: Kitty McKenzie's
R: reel
M: 4/4
K: Adorian
EG ~G2 AG ~G2|ABcd efge|dB~B2 agfa|gedB AGEF|
GE ~E2 B,EGB|ABcd efga|bg ~g2 agab|1 gedB ~A3G:|2 gedB ~A2 Bd||
|:ea ~a2 ea ~a2|bg ~g2 efge|dg ~g2 agab|gedB GABd|
ea ~a2 ea ~a2|bg ~g2 efga|bg ~g2 agab|1 gedB ~A2 Bd:|2 gedB ~A3G||

